!!!OTL: 307b. Neuer Vorsatz. / Neueste Form.
!!!COM: Volksweise
!!!ODT: 1892-94
!!!ARE: Europa, Mitteleuropa, Deutschland, Rheinland; Westerwald
!!!SCT: B0307A
!!!TXL: @@DE
!!!YEM: Copyright 1995, estate of Helmut Schaffrath.
**kern	**text
*ICvox	*
*Ivox	*
*clefG2	*
*M3/4	*
*k[f#]	*
*G:	*
!LO:TX:a:t=Mäßig.	!
{4d	Hier
=1	=1
4.g	ſitʒ'
8a	ich
8bL	auf
8ccJ	Ro-
=2	=2
4.dd	.
8ee	-ſen,
4dd	mit
=3	=3
8ddL	Veil-
8ccJ	.
4cc	-chen
4dd	be-
=4	=4
2b}	-kränʒt
{4d	Hier
=5	=5
4.g	ſitʒ'
8a	ich
8bL	auf
8ccJ	Ro-
=6	=6
4.dd	.
8ee	-ſen,
4dd	mit
=7	=7
8ddL	Veil-
8ccJ	.
4cc	-chen
4dd	be-
=8	=8
2b}	-kränʒt
{8g	und
8g	ich
=9	=9
8a/L	lie-
8eeJ	.
4ee	-be
4ee	ein
=10	=10
4.ee	Mäd-
8dd	-chen,
8cc	und
8cc	ich
=11	=11
8bL	lie-
8ddJ	.
4dd	-be
8ddL	ein
8eeJ	.
=12	=12
4.dd	Mäd-
8cc}	-chen,
{4b/	das
=13	=13
8a/L	Lie-
8ddJ	.
4dd	-ben
4cc	ver-
=14	=14
2b}	-ſteht.
==	==
!!!AGN: Geselligkeits -, Trink - Lied, Freude
!!!GTL: Lieder der Freude und Geseligkeit
!!!ONB: ESAC (Essen Associative Code) Database: BOEHME
!!!AMT: simple triple
!!!AIN: vox
!!!EED: Helmut Schaffrath
!!!EEV: 1.0
!!Mehrfach mündlich vom Rhein u. Weſterwald. 1892-94.
!!@@COMMENT:"Schlußʒeile auch: Der Kaiſer ſoll leben, der Kronprinʒ daneben, mein Mädchen und ich!"
!!Wieder ein ganʒ anderes Lied gleichen Anfangs ſ. Liederhort II S. 459."
!!@@END:
!!!URL-scan: https://archive.org/details/BoehmeVtLieder1895/page/n259/mode/2up
!!!ENC: Anna Maria Matuszewska
!!!EEV: 2024/04/07
*-	*-
